places/scalable/folder-yellow-games.svg

<svg xmlns="http://www.w3.org/2000/svg" style="isolation:isolate" width="256" height="256"><path d="M53.039 21C16.724 21 13 23.055 13 59.371v52.167h230V79.563c0-36.316-3.724-42.102-40.039-42.102h-89.336L97.198 21H53.039z" fill="#eab305"/><path d="M53.039 70.384C16.722 70.384 13 74.114 13 110.429v84.524C13 231.269 16.722 235 53.039 235h149.922c36.317 0 40.039-3.731 40.039-40.047V93.969c0-36.316-3.722-40.047-40.039-40.047H119.53l-16.438 16.462H53.039z" fill="#fdc92b"/><linearGradient id="a" y1=".5" x2="0" y2="-.5" gradientTransform="matrix(230 0 0 181.078 13 53.922)" gradientUnits="userSpaceOnUse"><stop offset="0%" stop-opacity=".07" stop-color="#fff"/><stop offset="67.282%" stop-opacity="0" stop-color="#fcefe8"/></linearGradient><path d="M53.039 70.384C16.722 70.384 13 74.114 13 110.429v84.524C13 231.269 16.722 235 53.039 235h149.922c36.317 0 40.039-3.731 40.039-40.047V93.969c0-36.316-3.722-40.047-40.039-40.047H119.53l-16.438 16.462H53.039z" fill="url(#a)"/><g opacity=".4"><radialGradient id="b" fx=".5" fy=".136" cx=".5" cy=".5" r=".272" gradientTransform="matrix(230 0 0 60.62 13 21)" gradientUnits="userSpaceOnUse"><stop offset="0%" stop-color="#fff"/><stop offset="100%" stop-opacity=".204" stop-color="#fff"/></radialGradient><path d="M53.039 21C16.724 21 13 23.055 13 59.371v2.059c0-36.316 3.724-38.373 40.039-38.373h44.159l16.427 16.461h89.336c36.315 0 40.039 5.786 40.039 42.102v-2.057c0-36.316-3.724-42.102-40.039-42.102h-89.336L97.198 21H53.039z" fill="url(#b)"/></g><g opacity=".4"><radialGradient id="c" fx=".482" fy=".211" cx=".5" cy=".5" r=".272" gradientTransform="matrix(230 0 0 58.565 13 53.922)" gradientUnits="userSpaceOnUse"><stop offset="0%" stop-color="#fff"/><stop offset="100%" stop-opacity=".204" stop-color="#fff"/></radialGradient><path d="M119.53 53.922l-16.438 16.462H53.039C16.724 70.384 13 74.112 13 110.427v2.06c0-36.316 3.724-40.046 40.039-40.046h50.053l16.438-16.46h83.431c36.315 0 40.039 3.727 40.039 40.043v-2.057c0-36.316-3.724-40.045-40.039-40.045H119.53z" fill="url(#c)"/></g><path d="M243 167.096l-65.715 65.845h25.676c36.315 0 40.039-3.727 40.039-40.043v-25.802z" fill="#FFF" opacity=".1"/><path d="M13 192.898v2.057C13 231.271 16.724 235 53.039 235h149.922c36.315 0 40.039-3.729 40.039-40.045v-2.057c0 36.316-3.724 40.043-40.039 40.043H53.039c-36.315 0-40.039-3.727-40.039-40.043z" opacity=".2"/><g opacity=".62"><path d="M96.385 107.048a13.039 13.039 0 0 0-6.045 1.646c-7.777 4.103-14.94 17.556-18.825 34.992-3.322 14.813-4.537 35.067-2.565 43.213C70.675 193.904 73.653 197 78.948 197c7.845-.135 17.7-8.883 23.947-20.667 4.522-6.524 15-9.492 25.102-9.162 10.103-.353 20.588 2.638 25.11 9.162 6.247 11.784 16.102 20.532 23.94 20.667 5.295 0 8.28-3.096 9.997-10.101 1.98-8.146.765-28.4-2.55-43.213-3.9-17.436-11.055-30.889-18.832-34.992-4.275-2.292-7.8-2.225-10.927 0-3.953 2.826-12.195 5.862-26.738 5.869-14.535.015-22.777-3.043-26.73-5.869a7.95 7.95 0 0 0-4.882-1.646zm1.86 22.546h7.44v7.516h7.44v7.515h-7.44v7.515h-7.44v-7.515h-7.44v-7.515h7.44v-7.516zm55.792 0c2.055 0 3.72 1.684 3.72 3.758s-1.665 3.758-3.72 3.758a3.73 3.73 0 0 1-2.637-1.107 3.75 3.75 0 0 1-1.083-2.651c0-2.074 1.665-3.758 3.72-3.758zm-7.44 7.516c2.055 0 3.72 1.683 3.72 3.757 0 2.075-1.665 3.758-3.72 3.758a3.733 3.733 0 0 1-2.637-1.107 3.747 3.747 0 0 1-1.083-2.651c0-2.074 1.665-3.757 3.72-3.757zm14.88 0c2.055 0 3.72 1.683 3.72 3.757 0 2.075-1.665 3.758-3.72 3.758a3.73 3.73 0 0 1-2.637-1.107 3.747 3.747 0 0 1-1.083-2.651c0-2.074 1.665-3.757 3.72-3.757zm-7.44 7.515c2.055 0 3.72 1.684 3.72 3.758s-1.665 3.757-3.72 3.757a3.73 3.73 0 0 1-2.637-1.106 3.75 3.75 0 0 1-1.083-2.651c0-2.074 1.665-3.758 3.72-3.758z" fill="#333"/></g></svg>

<?xml version="1.0" standalone="no"?><!-- Generator: Gravit.io -->
<svg xmlns="http://www.w3.org/2000/svg" 
  xmlns:xlink="http://www.w3.org/1999/xlink" style="isolation:isolate" viewBox="0 0 256 256" width="256" height="256">
  <switch>
    <g>
      <g id="folder">
        <path d=" M 53.039 21 C 16.724 21 13 23.055 13 59.371 L 13 111.538 L 243 111.538 L 243 79.563 C 243 43.247 239.276 37.461 202.961 37.461 L 113.625 37.461 L 97.198 21 L 53.039 21 Z " id="orange" fill="#eab305"/>
        <path d=" M 53.039 70.384 C 16.722 70.384 13 74.114 13 110.429 L 13 194.953 C 13 231.269 16.722 235 53.039 235 L 202.961 235 C 239.278 235 243 231.269 243 194.953 L 243 93.969 C 243 57.653 239.278 53.922 202.961 53.922 L 119.53 53.922 L 103.092 70.384 L 53.039 70.384 Z " id="change-color-easy" fill="#fdc92b"/>
        <linearGradient id="_lgradient_12" x1="0" y1="0.5" x2="2.83276944882399e-16" y2="-0.5" gradientTransform="matrix(230,0,0,181.078,13,53.922)" gradientUnits="userSpaceOnUse">
          <stop offset="0%" stop-opacity="0.07" style="stop-color:rgb(255,255,255)"/>
          <stop offset="67.28219512106674%" stop-opacity="0" style="stop-color:rgb(252,239,232)"/>
        </linearGradient>
        <path d=" M 53.039 70.384 C 16.722 70.384 13 74.114 13 110.429 L 13 194.953 C 13 231.269 16.722 235 53.039 235 L 202.961 235 C 239.278 235 243 231.269 243 194.953 L 243 93.969 C 243 57.653 239.278 53.922 202.961 53.922 L 119.53 53.922 L 103.092 70.384 L 53.039 70.384 Z " id="gradient white" fill="url(#_lgradient_12)"/>
        <g opacity="0.4">
          <radialGradient id="_rgradient_23" fx="0.5000000213726793" fy="0.13577386516315215" cx="0.5" cy="0.5" r="0.27154159375000003" gradientTransform="matrix(230,0,0,60.62,13,21)" gradientUnits="userSpaceOnUse">
            <stop offset="0%" stop-opacity="1" style="stop-color:rgb(255,255,255)"/>
            <stop offset="100%" stop-opacity="0.20392157" style="stop-color:rgb(255,255,255)"/>
          </radialGradient>
          <path d=" M 53.039 21 C 16.724 21 13 23.055 13 59.371 L 13 61.43 C 13 25.114 16.724 23.057 53.039 23.057 L 97.198 23.057 L 113.625 39.518 L 202.961 39.518 C 239.276 39.518 243 45.304 243 81.62 L 243 79.563 C 243 43.247 239.276 37.461 202.961 37.461 L 113.625 37.461 L 97.198 21 L 53.039 21 Z " id="white" fill="url(#_rgradient_23)"/>
        </g>
        <g opacity="0.4">
          <radialGradient id="_rgradient_24" fx="0.48214287810452355" fy="0.2108154047287485" cx="0.5" cy="0.5" r="0.27154159375" gradientTransform="matrix(230,0,0,58.565,13,53.922)" gradientUnits="userSpaceOnUse">
            <stop offset="0%" stop-opacity="1" style="stop-color:rgb(255,255,255)"/>
            <stop offset="100%" stop-opacity="0.20392157" style="stop-color:rgb(255,255,255)"/>
          </radialGradient>
          <path d=" M 119.53 53.922 L 103.092 70.384 L 53.039 70.384 C 16.724 70.384 13 74.112 13 110.427 L 13 112.487 C 13 76.171 16.724 72.441 53.039 72.441 L 103.092 72.441 L 119.53 55.981 L 202.961 55.981 C 239.276 55.981 243 59.708 243 96.024 L 243 93.967 C 243 57.651 239.276 53.922 202.961 53.922 L 119.53 53.922 Z " id="white" fill="url(#_rgradient_24)"/>
        </g>
        <g opacity="0.1">
          <path d=" M 243 167.096 L 177.285 232.941 L 202.961 232.941 C 239.276 232.941 243 229.214 243 192.898 L 243 167.096 Z " id="white" fill="rgb(255,255,255)"/>
        </g>
        <g opacity="0.2">
          <path d=" M 13 192.898 L 13 194.955 C 13 231.271 16.724 235 53.039 235 L 202.961 235 C 239.276 235 243 231.271 243 194.955 L 243 192.898 C 243 229.214 239.276 232.941 202.961 232.941 L 53.039 232.941 C 16.724 232.941 13 229.214 13 192.898 Z " id="dark" fill="rgb(0,0,0)"/>
        </g>
      </g>
      <g opacity="0.62">
        <path d=" M 96.385 107.048 C 94.267 107.097 92.192 107.662 90.34 108.694 C 82.563 112.797 75.4 126.25 71.515 143.686 C 68.193 158.499 66.978 178.753 68.95 186.899 C 70.675 193.904 73.653 197 78.948 197 C 86.793 196.865 96.648 188.117 102.895 176.333 C 107.417 169.809 117.895 166.841 127.997 167.171 C 138.1 166.818 148.585 169.809 153.107 176.333 C 159.354 188.117 169.209 196.865 177.047 197 C 182.342 197 185.327 193.904 187.044 186.899 C 189.024 178.753 187.809 158.499 184.494 143.686 C 180.594 126.25 173.439 112.797 165.662 108.694 C 161.387 106.402 157.862 106.469 154.735 108.694 C 150.782 111.52 142.54 114.556 127.997 114.563 C 113.462 114.578 105.22 111.52 101.267 108.694 C 99.867 107.618 98.15 107.04 96.385 107.048 L 96.385 107.048 Z  M 98.245 129.594 L 105.685 129.594 L 105.685 137.11 L 113.125 137.11 L 113.125 144.625 L 105.685 144.625 L 105.685 152.14 L 98.245 152.14 L 98.245 144.625 L 90.805 144.625 L 90.805 137.11 L 98.245 137.11 L 98.245 129.594 Z  M 154.037 129.594 C 156.092 129.594 157.757 131.278 157.757 133.352 C 157.757 135.426 156.092 137.11 154.037 137.11 C 153.046 137.106 152.098 136.708 151.4 136.003 C 150.703 135.298 150.313 134.345 150.317 133.352 C 150.317 131.278 151.982 129.594 154.037 129.594 Z  M 146.597 137.11 C 148.652 137.11 150.317 138.793 150.317 140.867 C 150.317 142.942 148.652 144.625 146.597 144.625 C 145.607 144.621 144.658 144.223 143.96 143.518 C 143.263 142.814 142.873 141.86 142.877 140.867 C 142.877 138.793 144.542 137.11 146.597 137.11 Z  M 161.477 137.11 C 163.532 137.11 165.197 138.793 165.197 140.867 C 165.197 142.942 163.532 144.625 161.477 144.625 C 160.486 144.621 159.538 144.223 158.84 143.518 C 158.143 142.814 157.753 141.86 157.757 140.867 C 157.757 138.793 159.422 137.11 161.477 137.11 Z  M 154.037 144.625 C 156.092 144.625 157.757 146.309 157.757 148.383 C 157.757 150.457 156.092 152.14 154.037 152.14 C 153.046 152.137 152.098 151.738 151.4 151.034 C 150.703 150.329 150.313 149.375 150.317 148.383 C 150.317 146.309 151.982 144.625 154.037 144.625 Z " id="game" fill="#333333"/>
      </g>
    </g>
  </switch>
</svg>
